!!!COM: Bach, Johann Sebastian
!!!CDT: 1685/3//-1750/7/28/
!!!OTL@@DE: Wer nur den lieben Gott laesst walten
!!!AGN: 4-Part Chorale
!!!SCT: BH 146
!!!SCT: BWV 434
**harm	**root	**kern	**kern	**kern	**kern
!	!	!bass	!tenor	!alto	!soprno
*	*Iorgan	*Iorgan	*Iorgan	*Iorgan	*Iorgan
*	*	*clefF2	*clefF2	*clefG2	*clefG2
*k[]	*k[]	*k[]	*k[]	*k[]	*k[]
*a:	*a:	*a:	*a:	*a:	*a:
*M4/4	*M4/4	*M4/4	*M4/4	*M4/4	*M4/4
*met(c)	*met(c)	*met(c)	*met(c)	*met(c)	*met(c)
*MM60	*MM60	*MM60	*MM60	*MM60	*MM60
*>[A,A,B]	*>[A,A,B]	*>[A,A,B]	*>[A,A,B]	*>[A,A,B]	*>[A,A,B]
*>A	*>A	*>A	*>A	*>A	*>A
i	4AA	4A	8A	8c	4e
.	.	.	8B	8d	.
=1	=1	=1	=1	=1	=1
ib	4AA	4C	8c	4e	4a
.	.	.	8B	.	.
V	4EE	4E	8A	4e	4b
.	.	.	8G#	.	.
i	4AA	4AA	4A	8e	4cc
.	.	.	.	8f#	.
viiob	4GG#	4BB	4D	4g#	4b
=2	=2	=2	=2	=2	=2
ib	4AA	4C	8E	8a	4a
.	.	.	8e	8gn	.
iiob	4BB	4D	8d	4fn	4b
.	.	.	8c	.	.
V	2EE	2E	4.B	2e	4.g#
.	.	.	8A	.	8f#
=3	=3	=3	=3	=3	=3
V;	4EE;	4E;	4G#;	4B;	4e;
v	4EE	4E	4B	4e	4gn
i7	4AA	4A	4c	4e	4g
iio	4BB	8B	8d	4d	4f
.	.	8A	8c	.	.
=4	=4	=4	=4	=4	=4
V7b	8EE	8G#	8B	8d	4e
V7c/IV	8AA	8Gn	8A	8c#	.
IVb	8DD	8F#	8A	8d	4a
Fr	8DD#	8Fn	8B	8d#	.
ic	8AA	8E	8cn	8e	8a
Vb/V	8BB	8D#	[8B	8f#	8b
V7	4EE	4E	8B]	4e	4g#
.	.	.	16c	.	.
.	.	.	16d	.	.
!!linebreak: 2
=5	=5	=5	=5	=5	=5
i;	2.AA;	2.AA;	2.c;	2.e;	2.a;
=:|!	=:|!	=:|!	=:|!	=:|!	=:|!
*>B	*>B	*>B	*>B	*>B	*>B
V	4EE	4E	4e	4g#	4b
=6	=6	=6	=6	=6	=6
i	4AA	4A	4e	4a	4cc
-VII	4GG	4B	4d	4gn	4dd
III	4CC	8c	4c	4g	4ee
.	.	8B	.	.	.
i	4AA	8A	4c	4a	4ee
.	.	8G	.	.	.
=7	=7	=7	=7	=7	=7
iv7	4DD	8F	4c	4a	8dd
.	.	8D	.	.	16ee
.	.	.	.	.	16ff
V7/III	4GG	4G	4B	8g	4dd
.	.	.	.	8f	.
III;	4CC;	4C;	4G;	4e;	4cc;
I	4AA	4C#	4A	4e	4ee
=8	=8	=8	=8	=8	=8
IV	8DD	8D	8A	8f#	4dd
V7	8EE	8E	8e	8g#	.
vi7	8FF	8F	8e	4a	4cc
viio/-VII	8FF#	8F#	8e-	.	.
-VII	8GG	8G	4d	8gn	4b
viio7	8GG#	8G#	.	8fn	.
i	4AA	4A	8c	4e	8a
.	.	.	8B	.	8b
=9	=9	=9	=9	=9	=9
viio7/V	4DD#	4D#	4A	4f#	8cc
.	.	.	.	.	8b
V7	4EE	4E	4G#	8e	4b
.	.	.	.	8d	.
I;	4AA;	4AA;	4E;	4c#;	4a;
==	==	==	==	==	==
*-	*-	*-	*-	*-	*-
!!chor2scor: -l 2 -s 0.6 -o %b.pmx
!!!YEC: Copyright 2003 by Craig Stuart Sapp
!!!license: GNU General Public License (http://www.gnu.org/copyleft/gpl.html)
!!!SMA: 371 Bach Chorales, edited by Ludwig Erk, C.F. Peters
!!!PDT: 1850, 1865
!!!ONB: Harmony and Root analysis done manually by Craig Sapp
